!!!COM: Haydn, Franz Joseph
!!!OTL: String Quartet in F Minor
!!!OPS: Opus 55
!!!ONM: No. 2
!!!OMD: Allegro
!!!OMV: 2
!!!SCT: H III:61
!!!SCA: Thematisch-bibliographisches Werkevererzeichnis (A. van Hoboken)
!!!YOR: Dover Edition; reprint of Eulenburg Edition
!!!ENC: Frances Bennion
!!!CDT: 1732/3/31/-1809/5/31/
!!!CNT: Oesterreich
!!!YEC: Copyright (c) 1994, 2000 Center for Computer Assisted Research in the Humanities
!!!YEM: Rights to all derivative editions reserved.
!!!YEM: Refer to licensing agreement for further details.
!!!YEN: United States of America
**kern	**kern	**kern	**kern
*k[b-e-a-d-]	*k[b-e-a-d-]	*k[b-e-a-d-]	*k[b-e-a-d-]
*f:	*f:	*f:	*f:
*clefF4	*clefC3	*clefF	*clefF
*M2/2	*M2/2	*M2/2	*M2/2
4r	4r	4r	1ff
4f	4a-	4cc	.
4f	4a-	4cc	.
4f	4a-	4cc	.
=2	=2	=2	=2
4r	4r	4r	2.ccc
4f	4a-	4cc	.
4f	4a-	4cc	.
4f	4a-	4a-	4ccc
=3	=3	=3	=3
4r	4r	4r	4ddd-
4f	4a-	4b	4bb
4f	4a-	4b	4r
4f	4a-	4f	4bb
=4	=4	=4	=4
2e	2g	2g	4ccc
.	.	.	4gg
2r	2r	2r	4r
.	.	.	4gg
=5	=5	=5	=5
4r	4r	4r	[2bb-
4d-	4f	4g	.
2c	2e	2b-	8.bb-]
.	.	.	16aa-
.	.	.	8.gg
.	.	.	16ff
=6	=6	=6	=6
2r	2r	2r	8.ee
.	.	.	16dd-
.	.	.	8.cc
.	.	.	16b-
8.r	8.r	8.r	8.a-
16G	16g	16g	16g
8.F	8.f	8.f	8.f
16E	16e	16e	16e
=7	=7	=7	=7
4F	4f	4f	4f
4D-	4d-	4d-	4d-
4C	4c	4c	4c
4BB	4B	4B	4B
=8	=8	=8	=8
4C	4c	4c	4c
4CC	4C	4cc	4cc
2r	2r	2r	2r
=9	=9	=9	=9
4r	4r	4r	1ff
4f	4a-	4cc	.
4f	4a-	4cc	.
4f	4a-	4cc	.
=10	=10	=10	=10
4r	4r	4r	2.ccc
4f	4a-	4cc	.
4f	4a-	4cc	.
4f	4a-	4a-	4ccc
=11	=11	=11	=11
4r	4r	4r	4ddd-
4f	4a-	4b	4bb
4f	4a-	4b	4r
4f	4a-	4f	4bb
=12	=12	=12	=12
2e	2g	2g	4ccc
.	.	.	4ggg
2r	2r	2r	8.r
.	.	.	16B-
.	.	.	4B-
=13	=13	=13	=13
8.r	8.r	8.r	4d-
16BB-	16B-	16B-	.
4BB-	4B-	4B-	4B-
4D-	4d-	4d-	8.r
.	.	.	16B-
4BB-	4B-	4B-	4B-
=14	=14	=14	=14
1r	1r	2.r	8.d-
.	.	.	16B-
.	.	.	8.g
.	.	.	16e
.	.	.	8.b-
.	.	.	16g
.	.	8.b-	8.dd-
.	.	16b-	16dd-
=15	=15	=15	=15
4r	4r	2b-	2dd-
4BB-	4F	.	.
4C	4F	4a-	4cc
4C	4G	4B-	4e
=16	=16	=16	=16
4FF	4F	4A-	4f
2.r	2.r	2.r	2.r
=17	=17	=17	=17
1r	1r	1r	1r
=18	=18	=18	=18
1r	1r	1r	1r
=19	=19	=19	=19
4r	4r	4r	1g-
4G-	4B-	4d-	.
4G-	4B-	4d-	.
4G-	4B-	4d-	.
=20	=20	=20	=20
4r	4r	4r	2.dd-
4G-	4B-	4d-	.
4G-	4B-	4d-	.
4G-	4B-	4B-	4dd-
=21	=21	=21	=21
4r	4r	4r	4ee-
4G-	4A-	4c	4cc
4G-	4A-	4c	4r
4G-	4A-	4c	4cc
=22	=22	=22	=22
4r	4r	4r	4dd-
4G-	4A-	4c	4aa-
4F	4A-	4d-	4r
4r	4r	4a-	4cc
=23	=23	=23	=23
4r	4r	4r	4dd-
4G-	4A-	4c	4aa-
4F	4A-	4d-	4r
4r	4r	4a-	4dd-
=24	=24	=24	=24
4r	4r	4r	4ee-
4A-	4B-	4d	4bb-
4G-	4B-	4e-	4r
4r	4r	4b-	4dd
=25	=25	=25	=25
4r	4r	4r	4ee-
4A-	4B-	4d	4..bb-
4G-	4B-	4e-	.
.	.	.	16aa-
8.E-	4B-	8.b-	8.gg-
16F	.	16a-	16ff
=26	=26	=26	=26
4G-	4B-	4g-	4ee-
4G-	4B-	2b-	2ee-
4G	4B-	.	.
4G	4B-	4b-	4dd-
=27	=27	=27	=27
1A-	1c	1e-	8.cc
.	.	.	16eee-
.	.	.	8.ddd-
.	.	.	16ccc
.	.	.	8.bb-
.	.	.	16aa-
.	.	.	8.gg
.	.	.	16ff
=28	=28	=28	=28
1G	1B-	1e- 1d-	8.ee-
.	.	.	16dd
.	.	.	8.ee-
.	.	.	16ff
.	.	.	8.ee-
.	.	.	16dd-
.	.	.	8.cc
.	.	.	16b-
=29	=29	=29	=29
1A-	1c	1e- 1c	8.cc
.	.	.	16ee-
.	.	.	8.dd-
.	.	.	16cc
.	.	.	8.b-
.	.	.	16a-
.	.	.	8.g
.	.	.	16f
=30	=30	=30	=30
1G	1B-	1e- 1d-	8.e-
.	.	.	16d
.	.	.	8.e-
.	.	.	16f
.	.	.	8.e-
.	.	.	16d-
.	.	.	8.c
.	.	.	16B-
=31	=31	=31	=31
2A-	2c	2c 2e-	8A-
.	.	.	8c
.	.	.	8e-
.	.	.	8c
2C	[2A-	2e-	8a-
.	.	.	8e-
.	.	.	8cc
.	.	.	8a-
=32	=32	=32	=32
[1D-	1A-_	[1f	8f
.	.	.	8a
.	.	.	8b-
.	.	.	8cc
.	.	.	8dd-
.	.	.	8dd
.	.	.	8ee-
.	.	.	8ee
=33	=33	=33	=33
2.D-]	4A-]	1f]	8ff
.	.	.	8ee-
.	4A	.	8dd-
.	.	.	8cc
.	4B-	.	8b-
.	.	.	8a-
4D	[4B-	.	8g
.	.	.	8a-
=34	=34	=34	=34
[1E-	1B-]	[1g	8g
.	.	.	8b-
.	.	.	8dd-
.	.	.	8b-
.	.	.	8gg
.	.	.	8aa-
.	.	.	8bb-
.	.	.	8ccc
=35	=35	=35	=35
1E-_	1b-	1g]	8ddd-
.	.	.	8ccc
.	.	.	8bb-
.	.	.	8aa-
.	.	.	8gg
.	.	.	8ff
.	.	.	8ee-
.	.	.	8dd-
=36	=36	=36	=36
1E-_	1c	[1a-	8cc
.	.	.	8ee-
.	.	.	8dd-
.	.	.	8cc
.	.	.	8b-
.	.	.	8a-
.	.	.	8g
.	.	.	8a-
=37	=37	=37	=37
1E-_	1d	1a-]	8d
.	.	.	8cc
.	.	.	8b-
.	.	.	8a-
.	.	.	8g
.	.	.	8f
.	.	.	8e-
.	.	.	8d
=38	=38	=38	=38
1E-_	4e-	1g	8e-
.	.	.	8g
.	4B-	.	8b-
.	.	.	8g
.	4G	.	8ee-
.	.	.	8b-
.	4E-	.	8gg
.	.	.	8ee-
=39	=39	=39	=39
1E-]	2.d	1a-	8dd
.	.	.	8ee-
.	.	.	8ff
.	.	.	8gg
.	.	.	8aa-
.	.	.	8ff
.	8f	.	8dd
.	8d	.	8ff
=40	=40	=40	=40
8E-	8e-	8g	8ee-
8D	8d	8d	8dd
8E-	8e-	8e-	8ee-
8F	8f	8f	8ff
8E-	8e-	8e-	8ee-
8D-	8d-	8d-	8dd-
8C	8c	8c	8cc
8BB-	8B-	8B-	8b-
=41	=41	=41	=41
4AA-	4A-	4A-	1a-
4A-	4c	4e-	.
4A-	4c	4e-	.
4A-	4c	4e-	.
=42	=42	=42	=42
4r	4r	4r	2.ee-
4A-	4c	4cc	.
4A-	4c	4cc	.
4A-	4c	4cc	4ee-
=43	=43	=43	=43
4r	4r	4r	4ff
4A-	4f	4b-	4dd
4A-	4f	4b-	4r
4A-	4f	4b-	4dd
=44	=44	=44	=44
4r	4r	4r	4ee-
4G	4e-	4b-	4b-
4G	4e-	4b-	4r
4A-	4e-	4cc	4cc
=45	=45	=45	=45
2.F	2.f	2.a-	2ee-
.	.	.	4dd-
4E-	4e-	4g	4cc
=46	=46	=46	=46
1D-	1d-	2.f	4b-
.	.	.	4ff
.	.	.	4dd-
.	.	4d-	4b-
=47	=47	=47	=47
4E-	4e-	2c	2a-
4E-	4e-	.	.
4E-	4G	8.d-	8.b-
.	.	16c	16a-
4E-	4G	8.d-	8.b-
.	.	16e-	16cc
=48	=48	=48	=48
2.A-	4A-	4c	4a-
.	4a-	2r	4cc
.	4cc	.	4ee-
4A-	4r	4cc	4r
=49	=49	=49	=49
4B-	4r	4dd-	4r
4E-	4b-	2r	4gg
4r	4dd-	.	4bb-
4G	4r	4b-	4r
=50	=50	=50	=50
4A-	4r	4cc	4r
4AA-	4a-	2r	4cc
4r	4cc	.	4ee-
4A-	4r	4cc	4r
=51	=51	=51	=51
4B-	4r	4dd-	4r
4E-	4b-	2r	4gg
4r	4dd-	.	4bb-
4G	4r	4b-	4r
=52	=52	=52	=52
4A-	4r	4cc	4r
4d	4f	4a-	4cc-
4d	4f	4a-	4cc-
4d	4f	4a-	4cc-
=53	=53	=53	=53
2.d-	2.e-	2.g	2.b-
4d-	8e-	4g	8ff
.	8b-	.	8ee-
=54	=54	=54	=54
4c	4a-	4a-	4ee-
4d-	8e-	4g	8ff
.	8b-	.	8ee-
4c	4a-	4a-	4ee-
4d-	8e-	4g	8ff
.	8b-	.	8ee-
=55	=55	=55	=55
4c	4a-	4a-	4ee-
4d-	8e-	4g	8ff
.	8b-	.	8ee-
4c	4a-	4a-	8ff
.	.	.	8ee-
4d-	8e-	4g	8ff
.	8b-	.	8ee-
=56	=56	=56	=56
2c	[1a-	2a-	4..ccc
.	.	.	16gg
2C	.	[2A-	4..aa-
.	.	.	16ee
=57	=57	=57	=57
[1D-	1a-_	1A-_	4..ee
.	.	.	16gg
.	.	.	8.ee
.	.	.	16gg
.	.	.	8.ee
.	.	.	16gg
=58	=58	=58	=58
1D-]	4a-]	4A-]	8ee
.	.	.	8ff
.	4g-	4A	8cc
.	.	.	8dd-
.	4f	4B-	8a
.	.	.	8b-
.	8d-	8f	8dd-
.	8f	8d-	8b-
=59	=59	=59	=59
4E-	2.e-	2.c	2.a-
4E-	.	.	.
4E-	.	.	.
4E-	4G	8e-	8cc
.	.	8d-	8b-
=60	=60	=60	=60
4A-	4A-	4c	8.a-
.	.	.	16e-
2.r	2.r	2.r	8.f
.	.	.	16g
.	.	.	8.a-
.	.	.	16b-
.	.	.	8.cc
.	.	.	16dd-
=61	=61	=61	=61
1r	8.r	2r	8.ee-
.	16D	.	16ff
.	8.E-	.	8.ee-
.	16F	.	16dd
.	8.G	8.r	4ee-
.	16A-	16f	.
.	8.B-	8.g	4ee-
.	16c	16a-	.
=62	=62	=62	=62
1r	8.d-	8.b-	[1ee-
.	16e-	16cc	.
.	8.f	8.dd-	.
.	16e-	16cc	.
.	8.d-	8.b-	.
.	16c	16a-	.
.	8.B-	8.g	.
.	16A-	16f	.
=63	=63	=63	=63
8.r	4G	4e-	8.ee-]
16DD	.	.	16ff
8.EE-	2.r	4..r	8.ee-
16FF	.	.	16dd
8.GG	.	.	4ee-
16AA-	.	16f	.
8.BB-	.	8.g	4ee-
16C	.	16a-	.
=64	=64	=64	=64
8.D-	1r	8.b-	[1ee-
16C	.	16a	.
8.D-	.	8.b-	.
16E-	.	16cc	.
8.F	.	4dd-	.
16G	.	.	.
8.A-	.	4g	.
16B-	.	.	.
=65	=65	=65	=65
[1c	[1e-	[1a-	8.ee-]
.	.	.	16gg
.	.	.	8.aa-
.	.	.	16bb-
.	.	.	8.ccc
.	.	.	16ddd-
.	.	.	8.eee-
.	.	.	16fff
=66	=66	=66	=66
4c]	4e-]	4a-]	2ggg-
4c	4e-	4a-	.
4c	4f	4a-	4fff
4c	4g-	4a-	4eee
=67	=67	=67	=67
2d-	2f	2a-	8.ff
.	.	.	16gg
.	.	.	8.aa-
.	.	.	16gg
2r	2r	2r	4aa-
.	.	.	4bb-
=68	=68	=68	=68
4r	4r	4r	1ccc-
4d	4a-	4ff	.
4d	4a-	4ff	.
4d	4a-	4ff	.
=69	=69	=69	=69
4r	4r	4r	1ccc
4e-	4a-	4cc	.
4e-	4a-	4cc	.
4e-	4a-	4cc	.
=70	=70	=70	=70
4r	4r	4r	1G
4EE-	4D-	4B-	.
4EE-	4D-	4B-	.
4EE-	4D-	4B-	.
=71	=71	=71	=71
2AA-	2C	2A-	8A-
.	.	.	8e-
.	.	.	8c
.	.	.	8a-
2r	2r	2r	8e-
.	.	.	8cc
.	.	.	8a-
.	.	.	8ee-
=72	=72	=72	=72
2EE-	8D-	8G	2.ee-
.	8G	8d-	.
.	8D-	8B-	.
.	8d-	8b-	.
2r	8B-	8d-	.
.	8d-	8f	.
.	8c	8e-	4G
.	8B-	8d-	.
=73	=73	=73	=73
2AA-	4A-	4c	8A-
.	.	.	8e-
.	2.r	2.r	8c
.	.	.	8a-
2r	.	.	8e-
.	.	.	8cc
.	.	.	8a-
.	.	.	8ee-
=74	=74	=74	=74
2EE-	8D-	8G	2.ee-
.	8G	8d-	.
.	8D-	8B-	.
.	8d-	8b-	.
2r	8B-	8d-	.
.	8d-	8f	.
.	8c	8e-	4g
.	8B-	8d-	.
=75	=75	=75	=75
2AA-	4A-	4c	8A-
.	.	.	8e-
.	2.r	2.r	8c
.	.	.	8a-
2r	.	.	8e-
.	.	.	8cc
.	.	.	8a-
.	.	.	8ee-
=76	=76	=76	=76
1C	8G	8B-	1ee
.	8B-	8g	.
.	8G	8e	.
.	8g	8b-	.
.	8e	8g	.
.	8b-	8dd-	.
.	8a-	8cc	.
.	8g	8b-	.
=77	=77	=77	=77
1AA-	8A-	8c	2.gg-
.	8c	8e-	.
.	8e-	8g-	.
.	8c	8e-	.
.	8e-	8g-	.
.	8g-	8b-	.
.	8f	8a-	4cc
.	8e-	8g-	.
=78	=78	=78	=78
4D-	4d-	4f	1dd-
4d-	4f	4a-	.
4d-	4f	4a-	.
4d-	4f	4a-	.
=79	=79	=79	=79
4r	4r	4r	2.aa-
4d-	4f	4a-	.
4d-	4f	4a-	.
4d-	4f	4f	4aa-
=80	=80	=80	=80
4r	4r	4r	4bb-
4d-	4e-	4b-	4gg
4d-	4e-	4g	4r
4d-	4e-	4b-	4gg
=81	=81	=81	=81
4r	4r	4r	4aa-
4c	4e-	4a-	4ee-
4c	4e-	4a-	4r
4c	4e-	4a-	4ee-
=82	=82	=82	=82
4r	4r	4r	[2gg-
4A-	4e-	4c	.
4c	4c	4e-	8.gg-]
.	.	.	16ff
4d-	4d-	4f	8.ee-
.	.	.	16dd-
=83	=83	=83	=83
4e-	4e-	1g-	8.cc
.	.	.	16dd-
4AA-	4c	.	8.ee-
.	.	.	16dd-
4BB-	4d-	.	8.cc
.	.	.	16b-
4C	4e-	.	8.a-
.	.	.	16g-
=84	=84	=84	=84
4D-	4f	4f	4f
4D-	4d-	4d-	4d-
4BB-	4B-	4B-	4B-
4GG	4G	4G	4G
=85	=85	=85	=85
4AA-	4A-	4A-	4A-
4A-	4a-	4a-	4a-
2r	2r	2r	2r
=86	=86	=86	=86
1r	1r	1r	1r
=87	=87	=87	=87
1r	1r	1r	1r
=88	=88	=88	=88
4r	4r	4r	1a
4A	4c#	4e	.
4A	4c#	4e	.
4A	4c#	4e	.
=89	=89	=89	=89
4r	4r	4r	2.ee
4A	4c#	4e	.
4A	4c#	4e	.
4A	4c#	4c#	4ee
=90	=90	=90	=90
4r	4r	4r	4ff#
4A	4B	4f#	4dd#
4A	4B	4d#	4r
4A	4B	4f#	4dd#
=91	=91	=91	=91
2G#	8g#	4e	4ee
.	8b	.	.
.	8g#	2.r	4bb
.	8b	.	.
2r	8a	.	4r
.	8cc	.	.
.	8a	.	4dd#
.	8cc	.	.
=92	=92	=92	=92
1r	8g#	1r	4ee
.	8b	.	.
.	8g#	.	4bb
.	8b	.	.
.	8a	.	4r
.	8cc	.	.
.	8a	.	4dd#
.	8cc	.	.
=93	=93	=93	=93
1r	8g#	1r	4ee
.	8b	.	.
.	8g#	.	4bb
.	8b	.	.
.	8g	.	4r
.	8b-	.	.
.	8g	.	4cc#
.	8b-	.	.
=94	=94	=94	=94
1r	8f#	1r	4dd
.	8a	.	.
.	8f#	.	4aa
.	8a	.	.
.	8f	.	4r
.	8a-	.	.
.	8f	.	4b
.	8a-	.	.
=95	=95	=95	=95
1r	8e	1r	4cc
.	8g	.	.
.	8e	.	4gg
.	8g	.	.
.	8e-	.	4r
.	8f	.	.
.	8e-	.	4a
.	8f	.	.
=96	=96	=96	=96
1r	8d	1r	4b-
.	8f	.	.
.	8d	.	4ff
.	8f	.	.
.	8e-	.	4r
.	8f	.	.
.	8e-	.	4a
.	8f	.	.
=97	=97	=97	=97
1r	8d	4r	4b-
.	8f	.	.
.	8d	4bb-	4ff
.	8f	.	.
.	8e-	4aa	4r
.	8f	.	.
.	8e-	4ccc	4a
.	8f	.	.
=98	=98	=98	=98
1r	8d	4r	4b-
.	8f	.	.
.	8d	4bb-	4ff
.	8f	.	.
.	8e-	4aa	4r
.	8f	.	.
.	8e-	4ccc	4a
.	8f	.	.
=99	=99	=99	=99
1BB-	8d	4ddd	8b-
.	8B-	.	8ff
.	8c	2.r	8ee-
.	8d	.	8dd
.	8e-	.	8cc
.	8d	.	8b-
.	8c	.	8a
.	8d	.	8b-
=100	=100	=100	=100
2.F	8c	1r	8a
.	8d	.	8b-
.	8e-	.	8cc
.	8d	.	8b-
.	8c	.	8a
.	8B-	.	8g
4F	8A	.	8f
.	8c	.	8e-
=101	=101	=101	=101
4G	4B-	1r	8d
.	.	.	8b-
4E	4g	.	8d-
.	.	.	8b-
4r	4e	.	8c
.	.	.	8b-
4E	4g	.	8c
.	.	.	8b-
=102	=102	=102	=102
4F	4r	1r	8c
.	.	.	8a
4D	4f	.	8c-
.	.	.	8a-
4r	4d	.	8B-
.	.	.	8a-
4D	4f	.	8B-
.	.	.	8a-
=103	=103	=103	=103
4E-	4g	1ee-	8g
.	.	.	8bb-
4EE-	2.r	.	8aa-
.	.	.	8gg
2r	.	.	8ff
.	.	.	8ee-
.	.	.	8dd
.	.	.	8ee-
=104	=104	=104	=104
1r	1r	2.bb-	8dd
.	.	.	8ee-
.	.	.	8ff
.	.	.	8ee-
.	.	.	8dd
.	.	.	8b-
.	.	4bb-	8cc
.	.	.	8dd
=105	=105	=105	=105
1r	1r	4ccc	8ee-
.	.	.	8ff
.	.	4aa	8ee-
.	.	.	8ff
.	.	4r	8ee-
.	.	.	8ff
.	.	4aa	8ee-
.	.	.	8ff
=106	=106	=106	=106
1r	1r	4bb-	8dd
.	.	.	8ff
.	.	4ff	8dd
.	.	.	8ff
.	.	4r	8dd-
.	.	.	8ee-
.	.	4gg	8dd-
.	.	.	8ee-
=107	=107	=107	=107
1r	1r	4aa-	8cc
.	.	.	8ee-
.	.	4ee-	8cc
.	.	.	8ee-
.	.	4r	8cc
.	.	.	8ee-
.	.	4ff#	8cc
.	.	.	8ee-
=108	=108	=108	=108
1r	1r	8gg	8b
.	.	8ff#	8dd
.	.	8gg	8b
.	.	8aa-	8dd
.	.	8gg	8b
.	.	8ff	8dd
.	.	8ee-	8cc
.	.	8dd	8b
=109	=109	=109	=109
1r	1c	8ee-	8cc
.	.	8g	8b
.	.	8a	8cc
.	.	8b	8dd
.	.	8cc	8ee-
.	.	8ee-	8gg
.	.	8dd	8ff
.	.	8cc	8ee-
=110	=110	=110	=110
1r	2.g	8b	8dd
.	.	8a	8cc
.	.	8b	8dd
.	.	8cc	8ee-
.	.	8dd	8ff
.	.	8ff	8aa-
.	4g	8ee-	8gg
.	.	8dd	8ff
=111	=111	=111	=111
1r	4a-	8cc	8ee-
.	.	8ee-	8ccc
.	4f#	8cc	8ee-
.	.	8ee-	8ccc
.	4r	8cc	8ee-
.	.	8ee-	8ccc
.	4f#	8cc	8ee-
.	.	8ee-	8ccc
=112	=112	=112	=112
1r	4g	8b	8dd
.	.	8dd	8bb
.	4e	8b-	8dd-
.	.	8dd-	8bb-
.	4r	8b-	8cc
.	.	8dd-	8bb-
.	4e	8b-	8cc
.	.	8dd-	8bb-
=113	=113	=113	=113
1F	8f	8cc	8aa-
.	8a-	8a-	8ccc
.	8g	8b-	8bb-
.	8f	8cc	8aa-
.	8b-	8dd-	8gg
.	8a-	8cc	8ff
.	8g	8b-	8ee
.	8a-	8cc	8ff
=114	=114	=114	=114
2.c	8g	8b-	8ee
.	8f	8a-	8ff
.	8e	8g	8gg
.	8f	8a-	8dd-
.	8e	8g	8cc
.	8c	8e	8b-
4c	8d	8f	8a-
.	8e	8g	8g
=115	=115	=115	=115
4d-	4f	4f	8f
.	.	.	8e
4B	2D-	2.r	8f
.	.	.	8a-
4r	.	.	8g
.	.	.	8f
4B	4a-	.	8e
.	.	.	8f
=116	=116	=116	=116
4c	4g	1r	8e
.	.	.	8g
4C	4e	.	8b-
.	.	.	8dd-
4r	4g	.	8cc
.	.	.	8b-
4C	4e	.	8a-
.	.	.	8g
=117	=117	=117	=117
1D-	4f	1a-	8f
.	.	.	8ee
.	2.r	.	8ff
.	.	.	8ee
.	.	.	8ff
.	.	.	8ee
.	.	.	8ff
.	.	.	8gg
=118	=118	=118	=118
1C	1r	2.ee-	8aa-
.	.	.	8bb-
.	.	.	8ccc
.	.	.	8bb-
.	.	.	8aa-
.	.	.	8gg
.	.	4ee-	8ff
.	.	.	8ee-
=119	=119	=119	=119
2.BB-	1r	4ff	8dd
.	.	.	8ff
.	.	4dd	8aa-
.	.	.	8ccc
.	.	4r	8bb-
.	.	.	8aa-
4AA-	.	4dd	8gg
.	.	.	8ff
=120	=120	=120	=120
1GG	1e-	8ee-	4ee-
.	.	8b-	.
.	.	8a-	2.r
.	.	8b-	.
.	.	8g	.
.	.	8b-	.
.	.	8f	.
.	.	8b-	.
=121	=121	=121	=121
2.GG-	2.b-	8e-	1r
.	.	8d	.
.	.	8e-	.
.	.	8d	.
.	.	8e-	.
.	.	8d	.
4FF	4b-	8e-	.
.	.	8f	.
=122	=122	=122	=122
2EE-	4cc-	8g-	1r
.	.	8f	.
.	4a	8g-	.
.	.	8f	.
2FF	4r	8e-	.
.	.	8g-	.
.	4a	8f	.
.	.	8e-	.
=123	=123	=123	=123
2D-	8b-	1b-	1r
.	8f	.	.
.	8e-	.	.
.	8f	.	.
4BB-	8d-	.	.
.	8f	.	.
4C	8c	.	.
.	8f	.	.
=124	=124	=124	=124
2.D-	8B-	2.ff	1r
.	8A	.	.
.	8B-	.	.
.	8A	.	.
.	8B-	.	.
.	8A	.	.
4C	8B-	4ff	.
.	8c	.	.
=125	=125	=125	=125
2BB-	8d-	4gg-	1r
.	8c	.	.
.	8d-	4ee	.
.	8c	.	.
2C	8B-	4r	.
.	8d-	.	.
.	8c	4ee	.
.	8B-	.	.
=126	=126	=126	=126
8F	8A-	4ff	1ff
8E	8G	.	.
8F	8A-	4cc	.
8A-	8cc	.	.
8G	8b-	2r	.
8F	8a-	.	.
8E	8g	.	.
8D	8f	.	.
=127	=127	=127	=127
8C	8e	1r	2.ccc
8BB	8d	.	.
8C	8e	.	.
8D-	8f	.	.
8C	8e	.	.
8BB-	8g	.	.
8AA-	8f	.	4ccc
8GG	8g	.	.
=128	=128	=128	=128
8FF	2.a-	2.r	4ddd-
8EE	.	.	.
8FF	.	.	4bb
8AA-	.	.	.
8GG	.	.	4r
8FF	.	.	.
8EE-	4g	[4ff	4bb
8DD	.	.	.
=129	=129	=129	=129
4CC	4g	8ff]	4ccc
.	.	8gg	.
2.r	2r	8ff	4gg
.	.	8gg	.
.	.	8ee	4r
.	.	8gg	.
.	4c	8ee-	4aa-
.	.	8ff	.
=130	=130	=130	=130
1r	4B-	8ee-	4bb-
.	.	8ff	.
.	4b-	8ee-	4ff
.	.	8ff	.
.	4r	8dd	4r
.	.	8ff	.
.	4B-	8dd-	4gg
.	.	8ee-	.
=131	=131	=131	=131
1r	4A-	8dd-	4aa-
.	.	8ee-	.
.	4a-	8dd-	4ee-
.	.	8ee-	.
.	4r	8cc	4r
.	.	8ee-	.
.	4A-	8cc	4ff#
.	.	8dd	.
=132	=132	=132	=132
1r	4G	8cc	4gg
.	.	8dd	.
.	4g	8cc	4dd
.	.	8dd	.
.	4r	8b	4r
.	.	8dd	.
.	4G	8b-	4ee
.	.	8cc	.
=133	=133	=133	=133
4r	4F	8a-	8ff
.	.	8g	8ee
4FF	4c	8a-	8ff
.	.	8cc	8aa-
4BB-	4d-	8b-	8gg
.	.	8a-	8ff
4BB	4B	8g	8ee
.	.	8a-	8ff
=134	=134	=134	=134
[1C	4c	4g	8ee
.	.	.	8gg
.	2r	4e	8bb-
.	.	.	8ddd-
.	.	4r	8ccc
.	.	.	8bb-
.	4b-	4ee	8aa-
.	.	.	8gg
=135	=135	=135	=135
1C_	4a-	4ff	8aa-
.	.	.	8ccc
.	4cc	4aa-	8bb-
.	.	.	8aa-
.	4r	4r	8gg
.	.	.	8ff
.	4a-	4cc	8ee
.	.	.	8ff
=136	=136	=136	=136
1C_	4g	4b-	8ee
.	.	.	8ff
.	4b-	4dd-	8gg
.	.	.	8ff
.	4r	4r	8ee
.	.	.	8dd-
.	4e	4g	8cc
.	.	.	8b-
=137	=137	=137	=137
1C_	4f	4a-	8a-
.	.	.	8g
.	4A-	4f	8a-
.	.	.	8cc
.	4r	4r	8b-
.	.	.	8a-
.	4A-	4c	8g
.	.	.	8f
=138	=138	=138	=138
1C_ [1CC	4G	4B-	8e
.	.	.	8f
.	4B-	4d-	8g
.	.	.	8d-
.	4r	4r	8c
.	.	.	8B-
.	4B-	4G 4e	8A-
.	.	.	8G
=139	=139	=139	=139
1C_ 1CC_	1A-	[1f [1A-	8A-
.	.	.	8c
.	.	.	8f
.	.	.	8c
.	.	.	8a-
.	.	.	8f
.	.	.	8a-
.	.	.	8cc
=140	=140	=140	=140
1C_ 1CC_	1f	1f] 1A-]	8ff
.	.	.	8cc
.	.	.	8aa-
.	.	.	8ff
.	.	.	8cc
.	.	.	8a-
.	.	.	8f
.	.	.	8c
=141	=141	=141	=141
1C_ 1CC_	[1d [1f	[1a- [1B	8B
.	.	.	8d
.	.	.	8f
.	.	.	8d
.	.	.	8a-
.	.	.	8f
.	.	.	8a-
.	.	.	8b
=142	=142	=142	=142
1C_ 1CC_	2.d] 2.f]	2.a-] 2.B]	8dd
.	.	.	8ff
.	.	.	8aa-
.	.	.	8ff
.	.	.	8dd
.	.	.	8b
.	4B	4f	8a-
.	.	.	8f
=143	=143	=143	=143
1C_ 1CC_	[1c	[1e [1G	8c
.	.	.	8e
.	.	.	8g
.	.	.	8e
.	.	.	8cc
.	.	.	8g
.	.	.	8ee
.	.	.	8cc
=144	=144	=144	=144
4C] 4CC]	4c]	4e] 4G]	8gg
.	.	.	8ee
4C 4CC	4C	4G 4e	8ccc
.	.	.	8gg
4C 4CC	4E	4e 4G	8ee
.	.	.	8cc
4C 4CC	4G	4e 4G	8g
.	.	.	8e
=145	=145	=145	=145
4C 4CC	2c	2G 2e	2c
2.r	.	.	.
.	2r	2r	2r
=146	=146	=146	=146
4r	4r	4r	1ff
4f	4a	4cc	.
4f	4a	4cc	.
4f	4a	4cc	.
=147	=147	=147	=147
4r	4r	4r	2.ccc
4f	4a	4cc	.
4f	4a	4cc	.
4f	4a	4cc	4ccc
=148	=148	=148	=148
4r	4r	4r	4ddd
4f	4g	4dd	4bb
4f	4g	4b	4r
4f	4g	4dd	4bb
=149	=149	=149	=149
4r	4r	4r	4ccc
4e	4g	4cc	4gg
4e	4g	4cc	4r
4f	4f	4cc	4aa
=150	=150	=150	=150
2.d	2.d	2.f	2ccc
.	.	.	4bb-
4c	4c	4e	4aa
=151	=151	=151	=151
1B-	1B-	2d	4gg
.	.	.	4ddd
.	.	4dd	4bb-
.	.	4b-	4gg
=152	=152	=152	=152
4c	4c	2a	2ff
4c	4c	.	.
4C	4E	8.b-	8.gg
.	.	16a	16ff
4C	4E	8.b-	8.gg
.	.	16cc	16aa
=153	=153	=153	=153
2.F	4F	4a	4ff
.	4f	2r	4aa
.	4a	.	4ccc
4F	4r	4a	4r
=154	=154	=154	=154
4G	4r	4b-	4r
4C	4e	2r	4gg
4r	4g	.	4bb-
4E	4r	4g	4r
=155	=155	=155	=155
4F	4r	4a	4r
4FF	4f	2r	4a
4r	4a	.	4cc
4F	4r	4a	4r
=156	=156	=156	=156
4G	4r	4b-	4r
4C	4e	2r	4g
4r	4g	.	4b-
4E	4r	4g	4r
=157	=157	=157	=157
4F	4r	4a	4r
4B	4d	4f	4a-
4B	4d	4f	4a-
4B	4d	4f	4a-
=158	=158	=158	=158
2.B-	2.c	2.e	2.g
4B-	8c	4e	8dd
.	8g	.	8cc
=159	=159	=159	=159
4A	4f	4f	4cc
4B-	8c	4e	8dd
.	8g	.	8cc
4A	4f	4f	4cc
4B-	8c	4e	8dd
.	8g	.	8cc
=160	=160	=160	=160
4A	4f	4f	4cc
4B-	8c	4e	8dd
.	8g	.	8cc
4A	4f	4f	8dd
.	.	.	8cc
4B-	8c	4e	8dd
.	8g	.	8cc
=161	=161	=161	=161
2A	1f	[1f	4..aa
.	.	.	16ee
2AA	.	.	4..ff
.	.	.	16cc#
=162	=162	=162	=162
[1BB-	[1F	1f_	4..cc#
.	.	.	16ee
.	.	.	8.cc#
.	.	.	16ee
.	.	.	8.cc#
.	.	.	16ee
=163	=163	=163	=163
1BB-]	4F]	4f]	8cc#
.	.	.	8dd
.	4E-	4f#	8a
.	.	.	8b-
.	4D	4g	8f#
.	.	.	8g
.	4D	8d	8b-
.	.	8B-	8g
=164	=164	=164	=164
4C	2.C	2.A	2.f
4C	.	.	.
4CC	.	.	.
4CC	4E	8c	8a
.	.	8B-	8g
=165	=165	=165	=165
4FF	4F	4A	8.f
.	.	.	16c
2.r	2.r	2.r	8.d
.	.	.	16e
.	.	.	8.f
.	.	.	16g
.	.	.	8.a
.	.	.	16b-
=166	=166	=166	=166
1r	8.r	2r	8.cc
.	16c	.	16dd
.	8.C	.	8.cc
.	16D	.	16b
.	8.E	8.r	4cc
.	16F	16d	.
.	8.G	8.e	4cc
.	16A	16f	.
=167	=167	=167	=167
1r	8.B-	8.g	[1cc
.	16c	16a	.
.	8.d	8.b-	.
.	16c	16a	.
.	8.B-	8.g	.
.	16A	16f	.
.	8.G	8.e	.
.	16F	16d	.
=168	=168	=168	=168
8.r	4E	4c	8.cc]
16C	.	.	16dd
8.CC	2.r	4..r	8.cc
16DD	.	.	16b
8.EE	.	.	4cc
16FF	.	16d	.
8.GG	.	8.e	4cc
16AA	.	16f	.
=169	=169	=169	=169
8.BB-	1r	8.g	[1cc
16AA	.	16f#	.
8.BB-	.	8.g	.
16C	.	16a	.
8.D	.	4b-	.
16E	.	.	.
8.F	.	4e	.
16G	.	.	.
=170	=170	=170	=170
[1A	[1c	[1f	8.cc]
.	.	.	16ee
.	.	.	8.ff
.	.	.	16gg
.	.	.	8.aa
.	.	.	16bb-
.	.	.	8.ccc
.	.	.	16ddd
=171	=171	=171	=171
4A]	4c]	4f]	2eee-
4A	4c	4f	.
4A	4d	4f	4ddd
4A	4e-	4f	4ccc#
=172	=172	=172	=172
2B-	2d	2f	8.ddd
.	.	.	16eee
.	.	.	8.fff
.	.	.	16eee
2r	2r	2r	4fff
.	.	.	4ggg
=173	=173	=173	=173
4r	4r	4r	1aaa-
4B	4f	4dd	.
4B	4f	4dd	.
4B	4f	4dd	.
=174	=174	=174	=174
4r	4r	4r	1aaa
4c	4f	4a	.
4c	4f	4a	.
4c	4f	4a	.
=175	=175	=175	=175
4r	4r	4r	1e
4CC	4B-	4G	.
4CC	4B-	4G	.
4CC	4B-	4G	.
=176	=176	=176	=176
2FF	2A	2A	8f
.	.	.	8cc
.	.	.	8a
.	.	.	8ff
2r	2r	2r	8cc
.	.	.	8aa
.	.	.	8ff
.	.	.	8ccc
=177	=177	=177	=177
2C	8G	8B-	2.ccc
.	8e	8g	.
.	8B-	8e	.
.	8g	8b-	.
2r	8e	8g	.
.	8b-	8dd	.
.	8a	8cc	4ee
.	8g	8b-	.
=178	=178	=178	=178
2F	4f	4a	8f
.	.	.	8cc
.	2.r	2.r	8a
.	.	.	8ff
2r	.	.	8cc
.	.	.	8aa
.	.	.	8ff
.	.	.	8ccc
=179	=179	=179	=179
2C	8G	8B-	2.ccc
.	8e	8g	.
.	8B-	8e	.
.	8g	8b-	.
2r	8e	8g	.
.	8b-	8dd	.
.	8a	8cc	4ee
.	8g	8b-	.
=180	=180	=180	=180
4FF	4f	4a	4ff
2.r	2.r	2.r	2.r
=181	=181	=181	=181
1r	1r	1r	1r
==	==	==	==
*-	*-	*-	*-
!!!RWG1: This file contains only pitch and duration data.
!!!RWG2: Transposing instruments are not transposed.
!!!RWG3: Spines may have incompatible meters.
!!!RWG4: Durations of rests and tied notes may be interpreted.
!!!RWG: Key is interpreted using the Humdrum key tool.
!!!GTL: 6 Quators ("Tost I + II")
!!!OPT: The Razor
!!!AFT: stage1
!!!END: 1997/04/15
!!!KEY: 1900465266
!!!EMD: Converted from MuseData to Humdrum Dec 16, 2000, by Andreas Kornstaedt using muse2kern.
!!!EMD: Manual editing by Craig Sapp, Nov 2001
